!!!OTL: ICH FORCHT MICH
!!!ARE: Europa, Mitteleuropa, Deutschland
!!!SCT: E0204B
!!!YEM: Copyright 1995, estate of Helmut Schaffrath.
**kern
*ICvox
*Ivox
*M2/4
*k[b-]
*F:
{8f
=1
8a
8a
8a
8a
=2
4cc
8cc
8b-
=3
4a
4g
=4
4f
8r}
{8f
=5
16cc
16cc
16cc
16cc
8cc
16dd
16ee
=6
8ff
8ff
8cc}
{8b-
=7
8a
8a
8cc
16cc
16b-
=8
4a
4g
=9
4f
8r}
==
!!!AGN: erzaehlendes Volks - Lied, Todes - Ahnung; betrogene Liebe
!!!ONB: ESAC (Essen Associative Code) Database: ERK1
!!!AMT: simple duple
!!!AIN: vox
!!!EED: Helmut Schaffrath
!!!EEV: 1.0
*-
